!!!OTL: NAMEN NENNEN DICH NICHT
!!!ARE: Europa, Mitteleuropa, Deutschland
!!!SCT: B0379
!!!YEM: Copyright 1995, estate of Helmut Schaffrath.
**kern
*ICvox
*Ivox
*M6/8
*k[b-]
*F:
=1
{4a
8a
8a
8g
8a
=2
4.cc
8b-
8r}
{8a
=3
4g
8g
8g
8cc
8b-
=4
8b-
8a
2r}
=5
{8a
8g
8f
8f
8e
8f
=6
4.d
4.dd}
=7
{8cc
8a
8f
8f
8g
8e
=8
4.f
4.r}
==
!!!AGN: Liebes - Lied, Liebes - Lust
!!!ONB: ESAC (Essen Associative Code) Database: BOEHME
!!!AMT: compound duple
!!!AIN: vox
!!!EED: Helmut Schaffrath
!!!EEV: 1.0
*-
